;Sliced by ideaMaker 5.0.6.8380, 2024-07-12 22:24:31 UTC-0300
;Slicer Version: 5.0.6.8380
;Dimension: 305.000 305.000 605.000 0.400 0.400
;Plate Shape: 0
;Origin Center: 0
;Extruder Offset #1: 0.000 0.000
;Filament Diameter #1: 1.750
;Filament Diameter #2: 1.750
;Filament Compensation #1: 90.00
;Filament Compensation #2: 90.00
;Filament Density #1: 1240.00
;Filament Density #2: 1240.00
;Filament Type #1: PLA
;Filament Type #2: PLA
;Filament Name #1: [Raise3D] Premium PLA 1.75mm
;Filament Name #2: [Raise3D] Premium PLA 1.75mm
;Firmware: Raise3D Pro2
;Bounding Box: 125.492 179.189 96.138 208.738 0.000 24.320
;Model Gap: 0.150
M221 T0 S90.00
M140 S60.00
M104 T0 S205.00
M109 T0 S205.00
T0
M190 S60.00
G21
G90
M82
M107
G28 X0 Y0
G28 Z0
G1 Z15.0 F300
G92 E0
G1 F140 E29
G1 X20 Y0 F140 E30
G92 E0
G1 F6000.0
M117 Printing...
M1001
;TOTAL_NUM: 1
;PRINTING_TIME: 0
;REMAINING_TIME: 8400
M106 S0
;LAYER:-2
;Z:0.500
;HEIGHT:0.500
;PRINTING: NON-OBJECT
;PRINTING_ID: -1
G1 F2400 E-0.5000
G0 F6000 X132.569 Y105.127
G0 F300 Z0.500
;TYPE:RAFT
;WIDTH:0.800
G1 F1500 E0.0000
G1 F480 X132.898 Y104.722 E0.0868
G1 X133.266 Y104.359 E0.1727
G1 X133.539 Y104.138 E0.2311
G1 X134.652 Y103.425 E0.4510
G1 X135.039 Y103.097 E0.5353
G1 X135.941 Y102.200 E0.7469
G1 X136.348 Y101.847 E0.8365
G1 X137.328 Y101.178 E1.0338
G1 X137.858 Y100.763 E1.1457
G1 X138.185 Y100.542 E1.2114
G1 X138.517 Y100.352 E1.2750
G1 X140.549 Y99.334 E1.6530
G1 X141.267 Y98.883 E1.7940
G1 X141.639 Y98.683 E1.8642
G1 X142.248 Y98.431 E1.9738
G1 X142.996 Y98.182 E2.1049
G1 X143.810 Y97.849 E2.2512
G1 X144.451 Y97.664 E2.3621
G1 X145.495 Y97.449 E2.5394
G1 X147.687 Y96.902 E2.9151
G1 X148.263 Y96.791 E3.0126
G1 X149.919 Y96.582 E3.2902
G1 X150.530 Y96.541 E3.3921
G1 X155.696 Y96.538 E4.2512
G1 X156.178 Y96.563 E4.3314
G1 X156.910 Y96.686 E4.4549
G1 X158.406 Y97.054 E4.7111
G1 X159.553 Y97.291 E4.9058
G1 X160.415 Y97.506 E5.0536
G1 X162.090 Y98.060 E5.3470
G1 X162.670 Y98.303 E5.4516
G1 X164.295 Y99.114 E5.7536
G1 X164.721 Y99.355 E5.8350
G1 X165.317 Y99.726 E5.9517
G1 X166.507 Y100.322 E6.1731
G1 X166.904 Y100.548 E6.2490
G1 X167.777 Y101.128 E6.4233
G1 X168.071 Y101.355 E6.4851
G1 X168.382 Y101.634 E6.5546
G1 X169.250 Y102.501 E6.7586
G1 X169.597 Y102.802 E6.8350
G1 X170.401 Y103.348 E6.9966
G1 X170.797 Y103.662 E7.0807
G1 X172.249 Y105.106 E7.4212
G1 X172.603 Y105.515 E7.5112
G1 X173.245 Y106.450 E7.6998
G1 X173.718 Y107.027 E7.8239
G1 X173.900 Y107.277 E7.8753
G1 X174.155 Y107.704 E7.9580
G1 X174.813 Y108.604 E8.1434
G1 X175.287 Y109.328 E8.2873
G1 X175.552 Y109.816 E8.3797
G1 X176.956 Y112.623 E8.9016
G1 X177.345 Y113.502 E9.0615
G1 X177.469 Y113.831 E9.1199
G1 X177.613 Y114.332 E9.2066
G1 X177.992 Y115.450 E9.4029
G1 X178.282 Y116.604 E9.6008
G1 X178.532 Y117.872 E9.8157
G1 X178.592 Y118.567 E9.9317
G1 X178.672 Y119.173 E10.0334
G1 X178.731 Y119.469 E10.0836
G1 X178.785 Y119.971 E10.1676
G1 X178.789 Y126.542 E11.2603
G1 X178.766 Y126.942 E11.3269
G1 X178.715 Y127.318 E11.3901
G1 X178.405 Y128.587 E11.6073
G1 X174.271 Y149.323 E15.1236
G1 X174.054 Y150.196 E15.2732
G1 X173.889 Y151.237 E15.4484
G1 X173.048 Y155.420 E16.1580
G1 X172.889 Y156.437 E16.3292
G1 X171.803 Y161.802 E17.2395
G1 X171.667 Y162.542 E17.3646
G1 X171.520 Y163.055 E17.4533
G1 X171.259 Y163.816 E17.5871
G1 X171.096 Y164.385 E17.6856
G1 X171.004 Y164.796 E17.7556
G1 X170.639 Y166.657 E18.0710
G1 X170.470 Y167.729 E18.2515
G1 X169.448 Y172.818 E19.1147
G1 X169.069 Y175.131 E19.5045
G1 X168.805 Y176.189 E19.6858
G1 X168.671 Y176.921 E19.8096
G1 X168.288 Y178.420 E20.0668
G1 X168.086 Y179.651 E20.2743
G1 X166.003 Y190.002 E22.0302
G1 X165.869 Y190.732 E22.1536
G1 X165.606 Y191.786 E22.3343
G1 X165.267 Y193.540 E22.6314
G1 X165.006 Y194.586 E22.8106
G1 X164.668 Y196.332 E23.1064
G1 X164.491 Y197.007 E23.2224
G1 X164.271 Y198.123 E23.4116
G1 X164.006 Y199.187 E23.5940
G1 X163.869 Y199.930 E23.7196
G1 X163.665 Y200.598 E23.8358
G1 X163.529 Y200.913 E23.8928
G1 X163.135 Y201.701 E24.0393
G1 X162.917 Y202.244 E24.1366
G1 X162.694 Y202.683 E24.2185
G1 X162.315 Y203.248 E24.3317
G1 X161.885 Y203.739 E24.4402
G1 X159.708 Y205.901 E24.9504
G1 X159.272 Y206.276 E25.0461
G1 X158.854 Y206.561 E25.1302
G1 X158.524 Y206.745 E25.1930
G1 X157.102 Y207.447 E25.4568
G1 X156.592 Y207.656 E25.5484
G1 X156.195 Y207.774 E25.6173
G1 X154.583 Y208.178 E25.8937
G1 X154.092 Y208.274 E25.9769
G1 X153.446 Y208.329 E26.0847
G1 X152.405 Y208.338 E26.2578
G1 X151.754 Y208.296 E26.3663
G1 X151.169 Y208.190 E26.4652
G1 X150.326 Y207.988 E26.6093
G1 X149.298 Y207.776 E26.7839
G1 X148.407 Y207.550 E26.9367
G1 X147.894 Y207.383 E27.0265
G1 X147.464 Y207.192 E27.1047
G1 X146.447 Y206.677 E27.2943
G1 X146.111 Y206.483 E27.3588
G1 X145.650 Y206.154 E27.4530
G1 X144.685 Y205.412 E27.6554
G1 X143.046 Y203.782 E28.0398
G1 X142.676 Y203.356 E28.1337
G1 X142.455 Y203.047 E28.1969
G1 X142.218 Y202.637 E28.2756
G1 X141.266 Y200.710 E28.6330
G1 X141.091 Y200.219 E28.7197
G1 X141.000 Y199.862 E28.7810
G1 X140.470 Y197.139 E29.2423
G1 X140.200 Y196.064 E29.4267
G1 X139.870 Y194.341 E29.7184
G1 X139.578 Y193.154 E29.9217
G1 X139.270 Y191.541 E30.1948
G1 X138.978 Y190.354 E30.3981
G1 X138.871 Y189.744 E30.5011
G1 X138.578 Y188.548 E30.7058
G1 X138.504 Y187.986 E30.8001
G1 X138.306 Y186.908 E30.9824
G1 X138.175 Y186.339 E31.0795
G1 X138.107 Y185.912 E31.1514
G1 X137.775 Y184.339 E31.4187
G1 X137.707 Y183.912 E31.4906
G1 X137.575 Y183.339 E31.5884
G1 X137.507 Y182.912 E31.6603
G1 X137.375 Y182.338 E31.7583
G1 X137.307 Y181.916 E31.8294
G1 X136.977 Y180.352 E32.0952
G1 X136.907 Y179.912 E32.1693
G1 X136.774 Y179.333 E32.2681
G1 X136.670 Y178.743 E32.3677
G1 X136.262 Y177.111 E32.6475
G1 X136.175 Y176.738 E32.7111
G1 X136.071 Y176.144 E32.8114
G1 X135.778 Y174.948 E33.0162
G1 X135.704 Y174.384 E33.1108
G1 X135.551 Y173.598 E33.2440
G1 X135.505 Y173.189 E33.3124
G1 X135.306 Y172.108 E33.4952
G1 X135.175 Y171.539 E33.5923
G1 X135.107 Y171.112 E33.6642
G1 X134.975 Y170.539 E33.7620
G1 X134.907 Y170.112 E33.8339
G1 X134.579 Y168.555 E34.0985
G1 X134.504 Y167.986 E34.1940
G1 X134.306 Y166.908 E34.3762
G1 X133.975 Y165.339 E34.6429
G1 X133.907 Y164.912 E34.7148
G1 X133.775 Y164.339 E34.8126
G1 X133.707 Y163.912 E34.8845
G1 X133.574 Y163.336 E34.9828
G1 X133.507 Y162.913 E35.0540
G1 X133.375 Y162.339 E35.1520
G1 X133.307 Y161.912 E35.2239
G1 X133.175 Y161.339 E35.3217
G1 X133.107 Y160.912 E35.3936
G1 X132.975 Y160.339 E35.4914
G1 X132.907 Y159.912 E35.5633
G1 X132.775 Y159.339 E35.6611
G1 X132.707 Y158.912 E35.7330
G1 X132.575 Y158.339 E35.8307
G1 X132.470 Y157.743 E35.9314
G1 X132.201 Y156.667 E36.1158
G1 X131.670 Y153.940 E36.5779
G1 X131.378 Y152.754 E36.7810
G1 X131.070 Y151.140 E37.0542
G1 X130.802 Y150.070 E37.2377
G1 X130.747 Y149.733 E37.2945
G1 X130.574 Y148.934 E37.4304
G1 X130.507 Y148.512 E37.5015
G1 X130.375 Y147.939 E37.5992
G1 X130.307 Y147.512 E37.6712
G1 X130.175 Y146.939 E37.7689
G1 X130.107 Y146.512 E37.8408
G1 X129.975 Y145.939 E37.9386
G1 X129.907 Y145.512 E38.0105
G1 X129.775 Y144.939 E38.1083
G1 X129.707 Y144.512 E38.1802
G1 X129.575 Y143.939 E38.2780
G1 X129.507 Y143.512 E38.3499
G1 X129.375 Y142.939 E38.4477
G1 X129.307 Y142.512 E38.5196
G1 X129.173 Y141.930 E38.6189
G1 X128.976 Y140.939 E38.7870
G1 X128.931 Y140.636 E38.8379
G1 X128.601 Y139.266 E39.0722
G1 X128.547 Y138.933 E39.1283
G1 X128.374 Y138.134 E39.2643
G1 X128.307 Y137.712 E39.3354
G1 X128.175 Y137.139 E39.4331
G1 X128.071 Y136.542 E39.5339
G1 X127.968 Y136.120 E39.6062
G1 X127.706 Y134.708 E39.8450
G1 X127.575 Y134.139 E39.9421
G1 X127.507 Y133.712 E40.0140
G1 X127.375 Y133.139 E40.1118
G1 X127.307 Y132.712 E40.1837
G1 X127.175 Y132.139 E40.2815
G1 X127.107 Y131.712 E40.3534
G1 X126.975 Y131.139 E40.4512
G1 X126.907 Y130.712 E40.5231
G1 X126.775 Y130.139 E40.6209
G1 X126.707 Y129.712 E40.6928
G1 X126.575 Y129.138 E40.7907
G1 X126.507 Y128.715 E40.8620
G1 X126.351 Y127.998 E40.9840
G1 X126.292 Y127.309 E41.0990
G1 X126.105 Y126.000 E41.3189
G1 X126.058 Y125.146 E41.4611
G1 X125.952 Y124.602 E41.5533
G1 X125.899 Y124.104 E41.6366
G1 X125.892 Y122.042 E41.9795
G1 X125.917 Y121.561 E42.0596
G1 X126.079 Y120.534 E42.2325
G1 X126.118 Y119.746 E42.3637
G1 X126.290 Y118.626 E42.5521
G1 X126.317 Y118.155 E42.6306
G1 X126.394 Y117.647 E42.7160
G1 X126.584 Y116.923 E42.8405
G1 X126.854 Y115.589 E43.0669
G1 X127.016 Y115.085 E43.1549
G1 X127.326 Y114.349 E43.2877
G1 X127.596 Y113.537 E43.4300
G1 X128.161 Y112.322 E43.6528
G1 X128.140 Y112.312 E43.6567
G1 X128.263 Y111.970 E43.7172
G1 X128.405 Y111.663 E43.7734
G1 X129.334 Y109.832 E44.1149
G1 X129.606 Y109.419 E44.1971
G1 X130.208 Y108.618 E44.3637
G1 X130.523 Y108.129 E44.4605
G1 X131.208 Y107.218 E44.6500
G1 X131.526 Y106.725 E44.7476
G1 X132.046 Y106.017 E44.8937
G1 X132.286 Y105.571 E44.9779
G1 X132.569 Y105.127 E45.0654
G1 F2400 E44.5654
G0 F6000 X128.472 Y112.507
G1 F1500 E45.0654
G1 F480 X128.472 Y136.744 E49.0961
G1 X128.526 Y137.057 E49.1489
G1 X128.660 Y137.642 E49.2487
G1 X128.728 Y138.065 E49.3199
G1 X128.901 Y138.865 E49.4561
G1 X128.954 Y139.194 E49.5115
G1 X129.284 Y140.566 E49.7462
G1 X129.333 Y140.887 E49.8002
G1 X129.524 Y141.848 E49.9631
G1 X129.660 Y142.442 E50.0644
G1 X129.728 Y142.867 E50.1360
G1 X129.860 Y143.442 E50.2341
G1 X129.928 Y143.867 E50.3057
G1 X130.060 Y144.442 E50.4038
G1 X130.128 Y144.867 E50.4754
G1 X130.260 Y145.442 E50.5735
G1 X130.328 Y145.867 E50.6451
G1 X130.460 Y146.442 E50.7432
G1 X130.528 Y146.867 E50.8148
G1 X130.660 Y147.442 E50.9129
G1 X130.728 Y147.867 E50.9844
G1 X130.860 Y148.442 E51.0826
G1 X130.896 Y148.665 E51.1201
G1 X130.896 Y108.231 E57.8443
G1 X131.502 Y107.425 E58.0120
G1 X131.824 Y106.927 E58.1106
G1 X132.353 Y106.207 E58.2592
G1 X132.598 Y105.750 E58.3455
G1 X132.863 Y105.336 E58.4272
G1 X133.160 Y104.969 E58.5057
G1 X133.320 Y104.811 E58.5431
G1 X133.320 Y160.217 E67.7572
G1 X133.328 Y160.267 E67.7656
G1 X133.460 Y160.842 E67.8637
G1 X133.528 Y161.267 E67.9353
G1 X133.660 Y161.842 E68.0334
G1 X133.728 Y162.267 E68.1050
G1 X133.860 Y162.843 E68.2032
G1 X133.927 Y163.264 E68.2741
G1 X134.060 Y163.841 E68.3726
G1 X134.128 Y164.267 E68.4443
G1 X134.260 Y164.842 E68.5424
G1 X134.330 Y165.279 E68.6160
G1 X134.659 Y166.838 E68.8810
G1 X134.860 Y167.929 E69.0655
G1 X134.859 Y167.929 E69.0657
G1 X134.936 Y168.506 E69.1625
G1 X135.261 Y170.045 E69.4241
G1 X135.260 Y170.045 E69.4242
G1 X135.328 Y170.467 E69.4953
G1 X135.460 Y171.042 E69.5934
G1 X135.528 Y171.467 E69.6650
G1 X135.659 Y172.034 E69.7618
G1 X135.744 Y172.496 E69.8399
G1 X135.744 Y102.904 E81.4131
G1 X136.191 Y102.460 E81.5179
G1 X136.567 Y102.133 E81.6007
G1 X137.539 Y101.469 E81.7965
G1 X138.077 Y101.049 E81.9100
G1 X138.168 Y100.987 E81.9283
G1 X138.168 Y184.458 E95.8096
G1 X138.461 Y185.845 E96.0453
G1 X138.460 Y185.845 E96.0455
G1 X138.528 Y186.267 E96.1166
G1 X138.659 Y186.834 E96.2134
G1 X138.860 Y187.929 E96.3985
G1 X138.859 Y187.929 E96.3987
G1 X138.933 Y188.480 E96.4911
G1 X139.224 Y189.672 E96.6952
G1 X139.331 Y190.284 E96.7985
G1 X139.622 Y191.466 E97.0009
G1 X139.623 Y191.466 E97.0011
G1 X139.931 Y193.085 E97.2752
G1 X140.222 Y194.264 E97.4771
G1 X140.552 Y195.989 E97.7692
G1 X140.592 Y196.147 E97.7963
G1 X140.592 Y99.714 E113.8332
G1 X140.727 Y99.647 E113.8582
G1 X141.460 Y99.187 E114.0022
G1 X141.786 Y99.012 E114.0637
G1 X142.375 Y98.768 E114.1697
G1 X143.016 Y98.554 E114.2821
G1 X143.016 Y203.198 E131.6845
G1 X143.306 Y203.532 E131.7580
G1 X144.924 Y205.141 E132.1375
G1 X145.440 Y205.538 E132.2458
G1 X145.440 Y97.827 E150.1582
G1 X145.574 Y97.800 E150.1809
G1 X147.758 Y97.255 E150.5552
G1 X147.864 Y97.234 E150.5732
G1 X147.864 Y206.975 E168.8232
G1 X148.028 Y207.048 E168.8531
G1 X148.500 Y207.202 E168.9356
G1 X149.377 Y207.424 E169.0861
G1 X150.288 Y207.612 E169.2408
G1 X150.288 Y96.917 E187.6494
G1 X150.541 Y96.901 E187.6916
G1 X152.712 Y96.899 E188.0526
G1 X152.712 Y207.976 E206.5248
G1 X153.424 Y207.969 E206.6432
G1 X154.042 Y207.917 E206.7464
G1 X154.515 Y207.824 E206.8265
G1 X155.136 Y207.669 E206.9330
G1 X155.136 Y96.898 E225.3543
G0 F6000 X155.695 Y96.898
G1 F480 X156.139 Y96.921 E225.4282
G1 X156.834 Y97.038 E225.5454
G1 X157.560 Y97.217 E225.6697
G1 X157.560 Y206.819 E243.8966
G1 X158.366 Y206.421 E244.0461
G1 X158.668 Y206.253 E244.1036
G1 X159.049 Y205.993 E244.1803
G1 X159.460 Y205.639 E244.2705
G1 X159.984 Y205.119 E244.3933
G1 X159.984 Y97.770 E262.2455
G1 X160.309 Y97.851 E262.3012
G1 X161.965 Y98.399 E262.5913
G1 X162.408 Y98.585 E262.6712
G1 X162.408 Y202.452 E279.9443
G1 X162.590 Y202.091 E280.0116
G1 X162.806 Y201.555 E280.1077
G1 X163.207 Y200.751 E280.2571
G1 X163.325 Y200.478 E280.3065
G1 X163.520 Y199.838 E280.4178
G1 X163.653 Y199.112 E280.5405
G1 X163.654 Y199.112 E280.5407
G1 X163.922 Y198.035 E280.7253
G1 X164.140 Y196.928 E280.9129
G1 X164.316 Y196.257 E281.0283
G1 X164.654 Y194.510 E281.3242
G1 X164.832 Y193.798 E281.4462
G1 X164.832 Y99.849 E297.0700
G1 X165.139 Y100.039 E297.1301
G1 X166.335 Y100.639 E297.3526
G1 X166.727 Y100.862 E297.4276
G1 X167.256 Y101.214 E297.5332
G1 X167.256 Y181.949 E310.9595
G1 X167.730 Y179.593 E311.3592
G1 X167.934 Y178.348 E311.5690
G1 X167.935 Y178.348 E311.5692
G1 X168.322 Y176.831 E311.8295
G1 X168.452 Y176.114 E311.9507
G1 X168.453 Y176.114 E311.9509
G1 X168.715 Y175.063 E312.1310
G1 X169.093 Y172.754 E312.5201
G1 X169.680 Y169.833 E313.0156
G1 X169.680 Y103.295 E324.0809
G1 X170.191 Y103.641 E324.1835
G1 X170.556 Y103.930 E324.2609
G1 X171.989 Y105.356 E324.5971
G1 X172.104 Y105.489 E324.6264
G1 X172.104 Y158.499 E333.4420
G1 X172.536 Y156.365 E333.8041
G1 X172.694 Y155.356 E333.9739
G1 X172.693 Y155.356 E333.9741
G1 X173.536 Y151.165 E334.6850
G1 X173.701 Y150.126 E334.8599
G1 X173.922 Y149.236 E335.0124
G1 X174.528 Y146.196 E335.5279
G1 X174.528 Y108.827 E341.7424
G1 X174.975 Y109.510 E341.8782
G1 X175.235 Y109.988 E341.9687
G1 X176.634 Y112.785 E342.4888
G1 X176.952 Y113.505 E342.6196
G1 X176.952 Y134.034 E346.0336
;PRINTING_TIME: 263
;REMAINING_TIME: 8138
M106 S255
;LAYER:-2
;Z:1.000
;HEIGHT:0.500
;PRINTING: NON-OBJECT
;PRINTING_ID: -1
G1 F2400 E345.5336
G0 F300 Z1.000
G0 F6000 X178.405 Y128.587
;TYPE:RAFT
;WIDTH:0.800
G1 F1500 E346.0336
G1 F960 X174.271 Y149.323 E349.5499
G1 X174.054 Y150.196 E349.6995
G1 X173.889 Y151.237 E349.8748
G1 X173.048 Y155.420 E350.5843
G1 X172.889 Y156.437 E350.7555
G1 X171.803 Y161.802 E351.6658
G1 X171.667 Y162.542 E351.7909
G1 X171.520 Y163.055 E351.8797
G1 X171.259 Y163.816 E352.0135
G1 X171.096 Y164.385 E352.1119
G1 X171.004 Y164.796 E352.1820
G1 X170.639 Y166.657 E352.4973
G1 X170.470 Y167.729 E352.6778
G1 X169.448 Y172.818 E353.5410
G1 X169.069 Y175.131 E353.9308
G1 X168.805 Y176.189 E354.1121
G1 X168.671 Y176.921 E354.2359
G1 X168.288 Y178.420 E354.4932
G1 X168.086 Y179.651 E354.7006
G1 X166.003 Y190.002 E356.4565
G1 X165.869 Y190.732 E356.5800
G1 X165.606 Y191.786 E356.7606
G1 X165.267 Y193.540 E357.0577
G1 X165.006 Y194.586 E357.2370
G1 X164.668 Y196.332 E357.5327
G1 X164.491 Y197.007 E357.6488
G1 X164.271 Y198.123 E357.8379
G1 X164.006 Y199.187 E358.0203
G1 X163.869 Y199.930 E358.1459
G1 X163.665 Y200.598 E358.2621
G1 X163.529 Y200.913 E358.3192
G1 X163.135 Y201.701 E358.4657
G1 X162.917 Y202.244 E358.5630
G1 X162.694 Y202.683 E358.6449
G1 X162.315 Y203.248 E358.7580
G1 X161.885 Y203.739 E358.8665
G1 X159.708 Y205.901 E359.3768
G1 X159.272 Y206.276 E359.4724
G1 X158.854 Y206.561 E359.5565
G1 X158.524 Y206.745 E359.6194
G1 X157.102 Y207.447 E359.8831
G1 X156.592 Y207.656 E359.9748
G1 X156.195 Y207.774 E360.0436
G1 X154.583 Y208.178 E360.3200
G1 X154.092 Y208.274 E360.4032
G1 X153.446 Y208.329 E360.5110
G1 X152.405 Y208.338 E360.6842
G1 X151.754 Y208.296 E360.7926
G1 X151.169 Y208.190 E360.8915
G1 X150.326 Y207.988 E361.0357
G1 X149.298 Y207.776 E361.2102
G1 X148.407 Y207.550 E361.3631
G1 X147.894 Y207.383 E361.4528
G1 X147.464 Y207.192 E361.5311
G1 X146.447 Y206.677 E361.7206
G1 X146.111 Y206.483 E361.7852
G1 X145.650 Y206.154 E361.8793
G1 X144.685 Y205.412 E362.0818
G1 X143.046 Y203.782 E362.4662
G1 X142.676 Y203.356 E362.5600
G1 X142.455 Y203.047 E362.6232
G1 X142.218 Y202.637 E362.7020
